X: 7585
T: Codladh Samh
R: reel
M: 4/4
K: Dmajor
e|:f2ef Afaf|g2fg B3d|e2ed c3A|Bcdc BAFA|
f2ef Affe|faab efed|e3d {c}BABc|1 dAFA d3e:|2 dAFA (d4||
d3)c dABF|A3F FEFA|d2cd e3d|{c}BABc dAFA|
d3e {c}BABF|A3F FEFA|deed|{c}BABc|dAFA (d4:|

